public/icons/copy.svg

<svg width="24" height="24" viewBox="0 0 24 24" fill="none" xmlns="http://www.w3.org/2000/svg">
<path d="M16 16V18.8C16 19.9201 16 20.4802 15.782 20.908C15.5903 21.2843 15.2843 21.5903 14.908 21.782C14.4802 22 13.9201 22 12.8 22H5.2C4.0799 22 3.51984 22 3.09202 21.782C2.71569 21.5903 2.40973 21.2843 2.21799 20.908C2 20.4802 2 19.9201 2 18.8V11.2C2 10.0799 2 9.51984 2.21799 9.09202C2.40973 8.71569 2.71569 8.40973 3.09202 8.21799C3.51984 8 4.0799 8 5.2 8H8M11.2 16H18.8C19.9201 16 20.4802 16 20.908 15.782C21.2843 15.5903 21.5903 15.2843 21.782 14.908C22 14.4802 22 13.9201 22 12.8V5.2C22 4.0799 22 3.51984 21.782 3.09202C21.5903 2.71569 21.2843 2.40973 20.908 2.21799C20.4802 2 19.9201 2 18.8 2H11.2C10.0799 2 9.51984 2 9.09202 2.21799C8.71569 2.40973 8.40973 2.71569 8.21799 3.09202C8 3.51984 8 4.07989 8 5.2V12.8C8 13.9201 8 14.4802 8.21799 14.908C8.40973 15.2843 8.71569 15.5903 9.09202 15.782C9.51984 16 10.0799 16 11.2 16Z" stroke="black" stroke-width="2" stroke-linecap="round" stroke-linejoin="round"/>
</svg>

<svg xmlns="http://www.w3.org/2000/svg" width="24" height="24" fill="none" xmlns:v="https://vecta.io/nano"><path d="M16 16v2.8c0 1.12 0 1.68-.218 2.108a2 2 0 0 1-.874.874C14.48 22 13.92 22 12.8 22H5.2c-1.12 0-1.68 0-2.108-.218a2 2 0 0 1-.874-.874C2 20.48 2 19.92 2 18.8v-7.6c0-1.12 0-1.68.218-2.108a2 2 0 0 1 .874-.874C3.52 8 4.08 8 5.2 8H8m3.2 8h7.6c1.12 0 1.68 0 2.108-.218a2 2 0 0 0 .874-.874C22 14.48 22 13.92 22 12.8V5.2c0-1.12 0-1.68-.218-2.108a2 2 0 0 0-.874-.874C20.48 2 19.92 2 18.8 2h-7.6c-1.12 0-1.68 0-2.108.218a2 2 0 0 0-.874.874C8 3.52 8 4.08 8 5.2v7.6c0 1.12 0 1.68.218 2.108a2 2 0 0 0 .874.874C9.52 16 10.08 16 11.2 16z" stroke="#000" stroke-width="2" stroke-linecap="round" stroke-linejoin="round"/></svg>
